contributed-vectors/kairo_land.svg

<svg width="192" height="192" viewBox="0 0 192 192" fill="none" xmlns="http://www.w3.org/2000/svg">
<g clip-path="url(#clip0)">
<g clip-path="url(#clip1)">
<path d="M20 56.68V129.42C20 130.55 20.63 131.58 21.64 132.09L99.63 171.93C100.49 172.37 101.5 172.37 102.36 171.93L169.48 137.66C170.48 137.15 171.12 136.12 171.12 134.99V64.04C171.12 62.92 170.49 61.89 169.5 61.38L90.23 20.34C89.37 19.89 88.35 19.89 87.48 20.33L21.63 54.01C20.63 54.52 20 55.55 20 56.68Z" fill="#F9DE81"/>
<path d="M41.4499 85.39C43.3399 86.35 44.5199 88.29 44.5199 90.4V110.32C44.5199 111.88 42.8699 112.89 41.4799 112.18C39.5899 111.22 38.4099 109.28 38.4099 107.17V87.25C38.4099 85.69 40.0599 84.69 41.4499 85.39Z" fill="#4A4A4A"/>
<path d="M75.03 102.51C76.92 103.47 78.1 105.41 78.1 107.52V127.44C78.1 129 76.45 130.01 75.06 129.3C73.17 128.34 71.99 126.4 71.99 124.29V104.38C72 102.82 73.64 101.81 75.03 102.51Z" fill="#4A4A4A"/>
<path d="M38.9699 124.95C41.2599 131.84 45.6399 138.31 52.0299 141.98C58.9599 145.96 69.5799 149.32 76.1999 142.8C79.0899 139.96 74.6399 135.51 71.7499 138.35C71.1699 138.92 70.2699 139.4 69.1299 139.72C67.6399 140.14 66.0899 140.23 64.5499 140.09C61.0099 139.77 57.5099 137.98 54.5099 136.14C49.8099 133.25 46.5799 127.98 45.0199 123.28C43.7599 119.45 37.6899 121.09 38.9699 124.95Z" fill="#4A4A4A"/>
<path d="M98.81 56.75L93.7 54.51L94.82 51.95C97.32 46.24 100.84 41.17 105.28 36.87C108.73 33.54 112.66 30.75 116.98 28.59L119.47 27.34L121.97 32.33L119.48 33.58C115.67 35.49 112.2 37.94 109.16 40.88C105.24 44.67 102.14 49.15 99.93 54.19L98.81 56.75Z" fill="#4A4A4A"/>
</g>
</g>
<defs>
<clipPath id="clip0">
<rect width="192" height="192" fill="white"/>
</clipPath>
<clipPath id="clip1">
<rect width="151.11" height="152.26" fill="white" transform="translate(20 20)"/>
</clipPath>
</defs>
</svg>

<svg xmlns="http://www.w3.org/2000/svg" width="192" height="192" fill="none"><g clip-path="url(#a)"><g clip-path="url(#b)"><path fill="#F9DE81" d="M20 56.68v72.74c0 1.13.63 2.16 1.64 2.67l77.99 39.84c.86.44 1.87.44 2.73 0l67.12-34.27c1-.51 1.64-1.54 1.64-2.67V64.04c0-1.12-.63-2.15-1.62-2.66L90.23 20.34a3 3 0 0 0-2.75-.01L21.63 54.01c-1 .51-1.63 1.54-1.63 2.67Z"/><path fill="#4A4A4A" d="M41.45 85.39c1.89.96 3.07 2.9 3.07 5.01v19.92c0 1.56-1.65 2.57-3.04 1.86a5.617 5.617 0 0 1-3.07-5.01V87.25c0-1.56 1.65-2.56 3.04-1.86ZM75.03 102.51c1.89.96 3.07 2.9 3.07 5.01v19.92c0 1.56-1.65 2.57-3.04 1.86a5.617 5.617 0 0 1-3.07-5.01v-19.91c.01-1.56 1.65-2.57 3.04-1.87ZM38.97 124.95c2.29 6.89 6.67 13.36 13.06 17.03 6.93 3.98 17.55 7.34 24.17.82 2.89-2.84-1.56-7.29-4.45-4.45-.58.57-1.48 1.05-2.62 1.37-1.49.42-3.04.51-4.58.37-3.54-.32-7.04-2.11-10.04-3.95-4.7-2.89-7.93-8.16-9.49-12.86-1.26-3.83-7.33-2.19-6.05 1.67ZM98.81 56.75l-5.11-2.24 1.12-2.56c2.5-5.71 6.02-10.78 10.46-15.08 3.45-3.33 7.38-6.12 11.7-8.28l2.49-1.25 2.5 4.99-2.49 1.25a41.674 41.674 0 0 0-10.32 7.3c-3.92 3.79-7.02 8.27-9.23 13.31l-1.12 2.56Z"/></g></g><defs><clipPath id="a"><path fill="#fff" d="M0 0h192v192H0z"/></clipPath><clipPath id="b"><path fill="#fff" d="M20 20h151.11v152.26H20z"/></clipPath></defs></svg>
